X:1
T:Darby and Joan
M:6/8
L:1/8
K:F
 F2 G AGF| G2 F F3| G2 A BAG| A2 G G3| GAB c2 A| G2 F FED| E3 D3| C6|\
 C2 D EFG| A2 E E3| _G2 E DGA| =B2 G G3| c3 =BGE| A2 A G3| GFE GFE|\
 D2 C C3| FGA B3| AGF G3| GAB cAG| F2 D C3| CDF GAF| G2 F F3|
